X: 18534
T: I Have A Bonnet Trimmed With Blue
R: polka
M: 2/4
K: Gmajor
|:GA/B/ ce|dG B2|de/d/ cA|GB B2|
GA/B/ ce|dG B2|de/d/ cA|AG G2:|
de/d/ Bd|gB d2|de/d/ cA|ed d2|
de/d/ Bd|gB d2|de/d/ cA|AG G2||
GB GB|de/d/ B2|de/d/ cA|GB B2|
GB GB|de/d/ B2|de/d/ cA|AG G2||
ge eg|de/d/ B2|de/d/ cA|ed d2|
ge eg|de/d/ B2|de/d/ cA|AG G2||

